X: 57
T: Finnegan's Wake
R: march
B: NEFR #57
Z: 2012 John Chambers <jc:trillian.mit.edu>
N: When sung, the order is ABA, with the final A the chorus.
M: C|
L: 1/4
K: D
|:\
"D"F>F FE | "Bm"FA BA | "G"d>d dA | "A7"BA E2 |\
"D"F3F FE | "Bm"FA BA | "G"d>d dA | "A7"Bc "D"d2 :|
|:\
"D"d>d de | "Bm"dc BA | "D"d>d de | "Bm"de f2 |\
"D"d>d de | "Bm"dc BA | "G"B>c BA | "A7"Bc "D"d2 :|
